X:69
T:61. Sellenger's Round
M:6/8
L:1/8
B:The Round Band Book of Playford
K:Fmaj clef=treble
[||: "C"c3 c>de | "F"f3 f>ga | "Bb"g2f "C"e>de | "F"f6 |
"C"c2c c>de | "F" f3 "Dm"f>ga | \
"Gm"g2f "C"e>de | "F" f3-f2 g |]
[|
%Error : Expecting repeat, found |:
|: "Dm"a3 a>gf | "Gm"g3 g2g | "C"e>fg g>fe | "G"d3 g2e |
"F"f>gf "C"e2c | "G7"d>ef "C"e2c | "F"d2c "G7"=BAB \
|1 "C"c3-c2 g :|2 "C"c3-c3 
%Warning : No repeat expected, found :|
:|
